!!!OTL: 515. Dreimal um! (Blindekuh.)
!!!ARE: Europa, Mitteleuropa, Deutschland, Starkenburg
!!!SCT: K2515
!!!TXL: @@DE
!!!YEM: Copyright 1995, estate of Helmut Schaffrath.
**kern	**text
*clefG2	*
*M2/4	*
*k[b-]	*
*F:	*
=1	=1
{8f	Wel-
8a	-ches
8cc	iſt
8ff	die
=2	=2
4cc	Schön-
4a}	-ſte
=3	=3
{8cc	un-
8b-	-ter
8g	die-
8b-	-ſen
=4	=4
4a	all?
4r}	.
=5	=5
{8ccL	Jungfrau,
8b-J	.
8g	.
8b-	Ma-
=6	=6
4a	-dam,
4r}	.
=7	=7
{8ccL	dreh'
8b-J	.
8g	dich
8b-	her-
=8	=8
4a	-um!
4r}	.
=9	=9
{8f	Dreh'
8a	dich
8cc	nur
8ff	noch
=10	=10
4cc	drei-
4a}	-mal
=11	=11
{8cc	in
8b-	den
*	*^
8g	Topp	Kreis
*	*v	*v
8cc	her-
=12	=12
4f	-um.
4r}	.
==	==
!!!AGN: Kinder - Lied, Such - Spiel
!!!ONB: ESAC (Essen Associative Code) Database: KINDER
!!!AMT: simple duple
!!!AIN: vox
!!!EED: Helmut Schaffrath
!!!EEV: 1.0
!!Aus dem Starkenburgischen, Erk III. 1, 74.
!!!GTL: Zweites Buch. Kinderspiel: 8. Such- und Rathespiele.
!!@@COMMENT:"Die Kinder bilden einen Kreis. Eins mit verbundenen Augen ſteht in der Mitte - als Blindekuh; die übrigen tanʒen um daſſelbe herum und fingen obiges Liedchen. Jſt das ʒu Ende, ſo ſtehen 
!!alle ſtill, nur die Blindekuh dreht ſich noch dreimal herum. Hierauf geht ſie auf eins der Kinder ʒu, befühlt es und ſucht ſeinen Namen ʒu errathen. Trifft es dieſen, ſo iſts frei und 
!!das genannte Kind tritt an deſſen Stelle. Wo nicht, ſo muß erſteres wieder in den Kreis und das Spiel beginnt von neuem."
!!@@END:
!!!URL-scan: https://archive.org/details/DeutschesKinderliedUndKinderspiel/page/629/mode/1up
!!!ENC: Anna Maria Matuszewska
!!!EEV: 2024/05/09
*-	*-
